X: 67
T: No_70_Rain_Dance_Song.krn
N: Derived from No_70_Rain_Dance_Song.krn
%%abc-version 2.0
%%abcx-abcm2ps-target-version 5.9.1 (29 Sep 2008)
%%abc-creator hum2abc beta
%%abcx-conversion-date 2019/03/15 08:25:35
%%humdrum-veritas 2488155021
%%humdrum-veritas-data 1816103611
%%linebreak <none>
%%barnumbers 0
L: 1/16
M: 2/4
K: G clef=bass
[K:clef=bass][M:2/4]A,4A,4 | 
A,4A,3E, | 
[M:3/4](F,3E,)E,7C, | 
(E,3C,)C,7A,, | 
[M:2/4](C,3A,,) A,,2 z2 | 
C,2A,,A,, C,2A,,A,, | 
[M:3/4]C,C,A,,A,, E,,2A,,A,, A,,2 z2 | 
[M:3/8]E,C,3C,2 | 
[M:3/4]E,3E, E,2E,C,E,4 | 
[M:2/4]E,(C,2A,,) A,,E,, z2 | 
[M:3/4]E,(C,2A,,) A,,A,,A,,2 A,,2 z C, | 
E,4E,(C,2A,,) C,C,A,,2 | 
[M:2/4]C,2C,2 C,3A,, | 
C,2C,A,, A,,2A,,2 | 
[M:3/8]C,3E,E,C, | 
[M:2/4]C,4A,,3A,, | 
Z12 | 
 [K:Eb] [M:3/4]B,2B,2 B, z B,2 G,G,G,2 | 
[M:2/4]B,2B,2 B, z B,2 | 
G,2G,2 G,2B,2 | 
B,CB,G, E,2E,2 | 
E,C,2B,, B,,(B,,2G,,) | 
G,,G,,G,,2 G,,2 z2 | 
E,2B,,3/B,,/ (B,,G,,)G,,2 | 
E,,2G,,G,, G,,2 z2 | 
B,2B,2 B,2B,G, | 
[M:3/4]B,2B,2 B,2(B,G,) G,2 z2 | 
[M:2/4]G,G,E,2 E,E,D, z | 
G,G,E,2 E,E,D, z | 
B,B,G,G, B,B,G,G, | 
B,B,G,2 G,2 z2 | 
B,B,G,G, E,E,D,D, | 
[M:3/4]B,,C,B,,C, G,,B,,G,,2 G,,G,, z2 | 
[M:2/4]E,E,B,,2 B,,2B,,G,, | 
[M:5/8]G,,3E,,G,,2G,,2 z2 | 
[M:2/4]B,2CB, =A,B,G,2 | 
[M:5/8]B,B,=A,B,G,G,G,2 z2 | 
[M:2/4]B,2G,G, E,E,D,D, | 
[M:3/4]B,,E,B,,E, G,,B,,G,,2 G,,2 z2 | 
E,E,B,,2 (G,,B,,)G,,2 G,,3E,, | 
B,,G,,G,,2 G,,G,,G,,2z4 |]  



